svgs/duotone/trash-can-clock.svg

<svg xmlns="http://www.w3.org/2000/svg" viewBox="0 0 576 512"><!--! Font Awesome Pro 6.5.1 by @fontawesome - https://fontawesome.com License - https://fontawesome.com/license (Commercial License) Copyright 2023 Fonticons, Inc. --><defs><style>.fa-secondary{opacity:.4}</style></defs><path class="fa-secondary" d="M32 96H416v96.7c-29.3 2.6-56.6 12.5-80 27.7V176c0-8.8-7.2-16-16-16s-16 7.2-16 16v71.2c-29.8 31.5-48 74-48 120.8c0 59.5 29.6 112.1 74.8 144H96c-35.3 0-64-28.7-64-64V96zm96 64c-8.8 0-16 7.2-16 16V400c0 8.8 7.2 16 16 16s16-7.2 16-16V176c0-8.8-7.2-16-16-16zm96 0c-8.8 0-16 7.2-16 16V400c0 8.8 7.2 16 16 16s16-7.2 16-16V176c0-8.8-7.2-16-16-16z"/><path class="fa-primary" d="M135.2 17.7C140.6 6.8 151.7 0 163.8 0H284.2c12.1 0 23.2 6.8 28.6 17.7L320 32h96c17.7 0 32 14.3 32 32s-14.3 32-32 32H32C14.3 96 0 81.7 0 64S14.3 32 32 32h96l7.2-14.3zM288 368a144 144 0 1 1 288 0 144 144 0 1 1 -288 0zm144-80c-8.8 0-16 7.2-16 16v64c0 8.8 7.2 16 16 16h48c8.8 0 16-7.2 16-16s-7.2-16-16-16H448V304c0-8.8-7.2-16-16-16z"/></svg>

<svg xmlns="http://www.w3.org/2000/svg" viewBox="0 0 576 512"><!--! Font Awesome Pro 6.1.1 by @fontawesome - https://fontawesome.com License - https://fontawesome.com/license (Commercial License) Copyright 2022 Fonticons, Inc. --><defs><style>.fa-secondary{opacity:.4}</style></defs><path class="fa-primary" d="M135.2 17.69C140.6 6.848 151.7 0 163.8 0H284.2C296.3 0 307.4 6.848 312.8 17.69L320 32H416C433.7 32 448 46.33 448 64C448 81.67 433.7 96 416 96H32C14.33 96 0 81.67 0 64C0 46.33 14.33 32 32 32H128L135.2 17.69zM576 368C576 447.5 511.5 512 432 512C352.5 512 287.1 447.5 287.1 368C287.1 288.5 352.5 224 432 224C511.5 224 576 288.5 576 368zM415.1 304V368C415.1 376.8 423.2 384 431.1 384H480C488.8 384 496 376.8 496 368C496 359.2 488.8 352 480 352H447.1V304C447.1 295.2 440.8 288 431.1 288C423.2 288 415.1 295.2 415.1 304V304z"/><path class="fa-secondary" d="M32 96H416V192.7C386.7 195.4 359.4 205.2 336 220.5V175.1C336 167.2 328.8 159.1 320 159.1C311.2 159.1 304 167.2 304 175.1V247.2C274.2 278.7 256 321.2 256 368C256 427.5 285.6 480.1 330.8 512H96C60.65 512 32 483.3 32 448V96zM112 176V400C112 408.8 119.2 416 128 416C136.8 416 144 408.8 144 400V176C144 167.2 136.8 160 128 160C119.2 160 112 167.2 112 176zM208 176V400C208 408.8 215.2 416 224 416C232.8 416 240 408.8 240 400V176C240 167.2 232.8 160 224 160C215.2 160 208 167.2 208 176z"/></svg>
